X:263
T:Steirer (61.)
C:traditionell
A:Salzkammergut
S:MIDI erhalten von Christian Amon. Nach einer kopie im besitz von Johann Stoeckl eines manuscriptes. Stoeckl(zitiert von Amon): "diese sammlung wurde 1935 im hause der familie Hohenlohe-Schillingfuerst gefunden. Sie wurde von einem der beiden brueder Steinegger 1866 verfasst. Die originale sind im Ausseer Kammerhofmuseum".
M:3/4
L:1/8
K:G
V:1
dg |\
fd c'd df | gd Bd dg | fd Ad df | gd Bd dg |\
fd c'd df | gd Bd dg | fd Ad df | g4 |*
V:2
gb |\
af e'f fa | bg dg gb | af df fa | bg dg gb |\
af e'f fa | bg dg gb | af df fa | b4 |*
